X: 40158
T: Tim Kelly's
R: reel
M: 4/4
K: Edorian
EFGA BEEG|DG (3BAG AF D2|EFGA BABd|(3ege dB AD D2:|
(3efg ed BA A2|Bd ef (3gbg fg|eged BABd|(3ege dB AD D2:|

